X: 0504
T: Round About Hullachan/Hullachan Round the Hoose
P: Original
C:Gow's Collection
R:Reel (nx32)
B:RSCDS 5-4
Z:Anselm Lingnau <anselm@strathspey.org>
M:C|
L:1/8
K:A
f|:"A"e2 Ac/d/ ecAa|"A"{f}e2 AB/c/ "G"dB=GB|\
   "A"{f}e2 Ac/d/ eAce|"Em"dE c/d/e "G"dB=GB|
   "A"e2 Ac/d/ ecAa|"A"{f}e2 AB/c/ "G"dB=GB|\
   "A"{f}e2 Ac/d/ eAce|"Em"dE c/d/e "G"dB=GB||
   "A"cA c/d/e cAAB|cA c/d/e "G"dB=GB|\
   "A"cA c/d/e cAcA|"Em"BE c/d/e "G"dB=GB|
   "A"cA c/d/e cAAB|cA c/d/e "G"dB=GB|\
   "A"cA c/d/e cA c/d/e|"Em"BE c/d/e "G"dB=GB:|
%%center Book05/0504-Round_About_Hullachan_Hullachan_Round_the_Hoose-AL.abc

%%sep 1 1 500
%%sep 1 1 500

